X:1
T:The Turkish Lady
M:3/4
L:1/8
K:F
 AAA| A3 AG A| D3 E/2E/2 FG| c3 dB c| A3 c/2c/2 dc| B3 A/2A/2| GA|\
 D3 FA B| c3 d/2A/2 GF| F3||
